svgs/sharp-light/arrow-up-triangle-square.svg

<svg xmlns="http://www.w3.org/2000/svg" viewBox="0 0 576 512"><!--! Font Awesome Pro 6.6.0 by @fontawesome - https://fontawesome.com License - https://fontawesome.com/license (Commercial License) Copyright 2024 Fonticons, Inc. --><path d="M296 224l20-32L397.1 62.2 416 32l18.9 30.2L516 192l20 32-37.7 0-164.5 0L296 224zm182.3-32L416 92.4 353.7 192l124.5 0zM160 33.4l11.3 11.3 88 88L270.6 144 248 166.6l-11.3-11.3L176 94.6 176 464l0 16-32 0 0-16 0-369.4L83.3 155.3 72 166.6 49.4 144l11.3-11.3 88-88L160 33.4zM352 448l128 0 0-128-128 0 0 128zM320 288l32 0 128 0 32 0 0 32 0 128 0 32-32 0-128 0-32 0 0-32 0-128 0-32z"/></svg>

<svg xmlns="http://www.w3.org/2000/svg" viewBox="0 0 576 512"><!--! Font Awesome Pro 6.4.2 by @fontawesome - https://fontawesome.com License - https://fontawesome.com/license (Commercial License) Copyright 2023 Fonticons, Inc. --><path d="M296 224l20-32L397.1 62.2 416 32l18.9 30.2L516 192l20 32H498.3 333.7 296zm182.3-32L416 92.4 353.7 192H478.3zM160 33.4l11.3 11.3 88 88L270.6 144 248 166.6l-11.3-11.3L176 94.6V464v16H144V464 94.6L83.3 155.3 72 166.6 49.4 144l11.3-11.3 88-88L160 33.4zM352 448H480V320H352V448zM320 288h32H480h32v32V448v32H480 352 320V448 320 288z"/></svg>
